X:1
T:Glory in the Highest (Bronner)
T:Glory in the Highest (Bronner)
T:Henry W. Petrie
T:Rene Bronner, 1914
T:Public Domain Courtesy of the Cyber Hymnal™
T:Public Domain Courtesy of the Cyber Hymnal™
C:Henry W. Petrie
Z:Public Domain
Z:Courtesy of the Cyber Hymnal™
%%score ( 1 2 ) 3
L:1/8
Q:1/4=98
M:4/4
K:Bb
V:1 treble 
V:2 treble 
V:3 bass 
V:1
 [Fd]2 [Fd]>[Fd] [Fd]2 [DB]>[DA] | [EG]3 [EF] [EF]2 z [EF] | [GB]>[GB] [GB]>[GB] [=EBd]3 [EBc] | %3
w: 1.~Ring out to- night thro’ the|wait- ing land The|sweet and glor- ious Christ- mas|
w: 2.~Far o’er the world hear His|mes- sage ring, To|all who would His word o-|
w: 3.~Ring out the joy of the|heav’n- ly hosts, While|songs the an- gels’ chor- us|
 [=EAc]4- [EAc] z F2 | [Bd]2 [Bd]2 [B^c=e]>[Bce] [Bce]>[Bce] | %5
w: cheer; * For|God has giv- en un- to|
w: bey; * And|the re- ward in Heav- en|
w: sings; * The|e- choes fall- ing from the|
 [Bdf]2 [FB]2 !fermata![F=Be]2 [GBd][GBd] | [Gce]>[Gce] [EG]>[EG] [EAc]3 [DFB] | %7
w: us a king, And we|glor- i- fy His name so|
w: will be theirs, Glor- i-|fy- ing there His name al-|
w: realms a- bove, As the|Christ- mas joy in glo- ry|
 [DFB]4- [DFB]3 z ||"^Refrain" [DF]2 (3(=EF)[=CG] [DF]2 (3(EF)[=CG] | [DF]4 [Fd]4 | %10
w: dear. *|||
w: way. *|Glo- ry * to God in * the|high- est,|
w: rings. *|||
 [=Ed]>[Ec] [E=B]>[Ec] [Ed]>[Ec] [EB]>[Ec] | [Ed]>[Ec] [E=B]>[Ec] [Ed]>[Ec] [EA]>[EG] | %12
w: ||
w: Hear the hap- py voic- es sing- ing;|Glad- ness thro’ the world is ring- ing;|
w: ||
 [DF]2 (3(=EF)[=CG] [DF]2 (3(EF)[=CG] | [DF]4 [Fd]4 | [Af]3 [Ge] [Fd]>[=E^c] [Fd]>[_E=c] | %15
w: |||
w: Glo- ry * to God in * the|high- est,|Peace on earth, good will t’ward|
w: |||
 [DB]6 z2 | [GBg]3 [GBg] [FBf]2 [Bd]2 | [Bcf]2 [Acf]2 [DFB]4 |] %18
w: |||
w: men,|Peace on earth, good|will t’ward men!|
w: |||
V:2
 x8 | x8 | x8 | x6 F2 | x8 | x8 | x8 | x8 || x2 ^C2 x4/3 ^C2 x2/3 | x8 | x8 | x8 | %12
 x2 ^C2 x4/3 ^C2 x2/3 | x8 | x8 | x8 | x8 | x8 |] %18
V:3
 [B,,,B,,] z [F,B,D] z [B,,,B,,] z [F,B,] z | [C,,C,] z [C,F,A,] z [F,,C,] z [C,F,A,] z | %2
 [G,,G,] z [G,B,D] z [C,,C,] z [C,G,B,] z | %3
 ([F,,F,]>[^F,,^F,][G,,G,]>[^G,,^G,] [A,,A,]) z [=F,,=F,]2 | %4
 [G,,G,]2 [G,B,D]2 [_G,,_G,]2 [G,B,^C=E]2 | [F,,F,]2 [D,,D,]2 !fermata![B,,,G,,]2 [D,,D,]2 | %6
 [C,,C,]2 [E,,E,]2 [F,,F,]3 [B,,B,] | [B,,,B,,] z (3([F,B,D][F,B,D][F,B,D] [F,B,D]) z [F,B,D] z || %8
 [B,,,B,,]2 [G,B,]2 [B,,,B,,]2 [G,B,]2 | ([B,,,B,,]2 (3[F,B,][F,B,][F,B,]) [F,B,D] z [F,B,D] z | %10
 C, z [G,B,C] z C, z [G,B,C] z | F,, z [F,A,] z F,, z [F,A,] z | %12
 [B,,,B,,]2 [G,B,]2 [B,,,B,,]2 [G,B,]2 | ([B,,,B,,]2 (3[F,B,][F,B,][F,B,]) [F,B,D] z [F,B,D] z | %14
 [F,,F,] z [F,A,E] z [F,,F,] z [F,A,] z | [G,,G,] z (3([G,B,][G,B,][G,B,] [G,B,]) z [G,B,] z | %16
 [=E,^C]3 [E,C] [F,D]2 [F,F]2 | [F,E]2 [F,,F,E]2 [B,,F,D]4 |] %18

